X:64
T:Klapsprong
O:Vlaanderen
Z:Bert Van Vreckem, 2001-08-11 <http://flanders.blackmill.net/music/>
N:Repeat ad lib.
M:2/4
L:1/8
K:C
"C"CE/F/ GG|"F"AA "C"G2|CD/E/ "F"FF|"C"EG "G"D2|"C"EC CC|"F"FC CC|"C"EE "F"F/E/F|"G"D4|
"C"GF/E/ "F"FD|"C"EG "G"D2|"C"EF/G/ "F"AG|FE "G"D2|"C"EC CC|"F"FC CC|"C"EE "G"D/E/D|"C"C4|]

